packages/swarm-icons/src/icons/solid/Start Message.svg

<svg xmlns="http://www.w3.org/2000/svg" width="18" height="18" viewBox="0 0 18 18">
  <path fill="#A2A2A2" d="M7.77532499,14.1441456 L4.0421708,15.9858564 C3.92747301,16.0424413 3.79545218,16.0529222 3.67326303,16.0151433 C3.40944278,15.9335744 3.26169888,15.6535812 3.34326779,15.3897609 L4.26741858,12.4007584 C3.17155767,11.3492598 2.5,9.93256676 2.5,8.37412587 C2.5,5.12993574 5.41014913,2.5 9,2.5 C12.5898509,2.5 15.5,5.12993574 15.5,8.37412587 C15.5,11.618316 12.5898509,14.2482517 9,14.2482517 C8.5813517,14.2482517 8.17194749,14.2124841 7.77532499,14.1441456 Z M10,7.5 L10,6.5 C10,5.94771525 9.55228475,5.5 9,5.5 C8.44771525,5.5 8,5.94771525 8,6.5 L8,7.5 L7,7.5 C6.44771525,7.5 6,7.94771525 6,8.5 C6,9.05228475 6.44771525,9.5 7,9.5 L8,9.5 L8,10.5 C8,11.0522847 8.44771525,11.5 9,11.5 C9.55228475,11.5 10,11.0522847 10,10.5 L10,9.5 L11,9.5 C11.5522847,9.5 12,9.05228475 12,8.5 C12,7.94771525 11.5522847,7.5 11,7.5 L10,7.5 Z"/>
</svg>

<svg xmlns="http://www.w3.org/2000/svg" width="18" height="18"><path fill="#A2A2A2" d="M7.775 14.144l-3.733 1.842a.5.5 0 01-.699-.596l.924-2.99C3.172 11.35 2.5 9.934 2.5 8.375 2.5 5.13 5.41 2.5 9 2.5s6.5 2.63 6.5 5.874c0 3.244-2.91 5.874-6.5 5.874a7.21 7.21 0 01-1.225-.104zM10 7.5v-1a1 1 0 10-2 0v1H7a1 1 0 100 2h1v1a1 1 0 002 0v-1h1a1 1 0 000-2h-1z"/></svg>
